svgs/duotone/rectangle-barcode.svg

<svg xmlns="http://www.w3.org/2000/svg" viewBox="0 0 576 512"><!--! Font Awesome Pro 6.6.0 by @fontawesome - https://fontawesome.com License - https://fontawesome.com/license (Commercial License) Copyright 2024 Fonticons, Inc. --><defs><style>.fa-secondary{opacity:.4}</style></defs><path class="fa-secondary" d="M0 96L0 416c0 35.3 28.7 64 64 64l448 0c35.3 0 64-28.7 64-64l0-320c0-35.3-28.7-64-64-64L64 32C28.7 32 0 60.7 0 96zm96 56c0-13.3 10.7-24 24-24s24 10.7 24 24l0 208c0 13.3-10.7 24-24 24s-24-10.7-24-24l0-208zm80-8c0-8.8 7.2-16 16-16s16 7.2 16 16l0 224c0 8.8-7.2 16-16 16s-16-7.2-16-16l0-224zm64 8c0-13.3 10.7-24 24-24s24 10.7 24 24l0 208c0 13.3-10.7 24-24 24s-24-10.7-24-24l0-208zm112 0c0-13.3 10.7-24 24-24s24 10.7 24 24l0 208c0 13.3-10.7 24-24 24s-24-10.7-24-24l0-208zm96-8c0-8.8 7.2-16 16-16s16 7.2 16 16l0 224c0 8.8-7.2 16-16 16s-16-7.2-16-16l0-224z"/><path class="fa-primary" d="M96 152c0-13.3 10.7-24 24-24s24 10.7 24 24l0 208c0 13.3-10.7 24-24 24s-24-10.7-24-24l0-208zm80-8c0-8.8 7.2-16 16-16s16 7.2 16 16l0 224c0 8.8-7.2 16-16 16s-16-7.2-16-16l0-224zm88-16c13.3 0 24 10.7 24 24l0 208c0 13.3-10.7 24-24 24s-24-10.7-24-24l0-208c0-13.3 10.7-24 24-24zm88 24c0-13.3 10.7-24 24-24s24 10.7 24 24l0 208c0 13.3-10.7 24-24 24s-24-10.7-24-24l0-208zm112-24c8.8 0 16 7.2 16 16l0 224c0 8.8-7.2 16-16 16s-16-7.2-16-16l0-224c0-8.8 7.2-16 16-16z"/></svg>

<svg xmlns="http://www.w3.org/2000/svg" viewBox="0 0 576 512"><!--! Font Awesome Pro 6.4.0 by @fontawesome - https://fontawesome.com License - https://fontawesome.com/license (Commercial License) Copyright 2023 Fonticons, Inc. --><defs><style>.fa-secondary{opacity:.4}</style></defs><path class="fa-primary" d="M96 152c0-13.3 10.7-24 24-24s24 10.7 24 24V360c0 13.3-10.7 24-24 24s-24-10.7-24-24V152zm80-8c0-8.8 7.2-16 16-16s16 7.2 16 16V368c0 8.8-7.2 16-16 16s-16-7.2-16-16V144zm88-16c13.3 0 24 10.7 24 24V360c0 13.3-10.7 24-24 24s-24-10.7-24-24V152c0-13.3 10.7-24 24-24zm88 24c0-13.3 10.7-24 24-24s24 10.7 24 24V360c0 13.3-10.7 24-24 24s-24-10.7-24-24V152zm112-24c8.8 0 16 7.2 16 16V368c0 8.8-7.2 16-16 16s-16-7.2-16-16V144c0-8.8 7.2-16 16-16z"/><path class="fa-secondary" d="M64 32C28.7 32 0 60.7 0 96V416c0 35.3 28.7 64 64 64H512c35.3 0 64-28.7 64-64V96c0-35.3-28.7-64-64-64H64zm56 96c13.3 0 24 10.7 24 24V360c0 13.3-10.7 24-24 24s-24-10.7-24-24V152c0-13.3 10.7-24 24-24zm56 16c0-8.8 7.2-16 16-16s16 7.2 16 16V368c0 8.8-7.2 16-16 16s-16-7.2-16-16V144zm88-16c13.3 0 24 10.7 24 24V360c0 13.3-10.7 24-24 24s-24-10.7-24-24V152c0-13.3 10.7-24 24-24zm88 24c0-13.3 10.7-24 24-24s24 10.7 24 24V360c0 13.3-10.7 24-24 24s-24-10.7-24-24V152zm112-24c8.8 0 16 7.2 16 16V368c0 8.8-7.2 16-16 16s-16-7.2-16-16V144c0-8.8 7.2-16 16-16z"/></svg>
